X:1
T: The Bangor Regatta (O'Neills version)
T: The Old Horned Sheep
R:Jig
Q:180
K:G
M:6/8
L:1/16
|:g4G2 G2F2G2|E2G2G2 D2G2G2|g4G2 G2F2G2|E2A2G2 F2E2D2|
g4G2 G2F2G2|E2G2G2 D2G2G2|E2G2G2 F2G2A2|B2G2G2 G6:|
|:B2d2d2 d2B2d2|B2d2d2 d4G2|B2d2d2 d2B2G2|c2A2A2 A4c2|
B2d2d2 d2B2d2|B2d2d2 d2e2f2|g2f2e2 d2c2B2|1A2B2G2|F2E2D2:|2A2B2A2 G6||
